modules/feather/icons/shopping-bag.svg

<?xml version="1.0" encoding="UTF-8"?>
<svg width="24px" height="24px" viewBox="0 0 24 24" version="1.1" xmlns="http://www.w3.org/2000/svg" xmlns:xlink="http://www.w3.org/1999/xlink">
    <g id="shopping-bag" fill-rule="evenodd">
        <path d="M21.7939392,5.39191899 C21.7959883,5.39459033 21.7980242,5.39727231 21.8000468,5.39996483 C21.9298221,5.57309617 22,5.78362979 22,6 L22,20 C22,21.6568542 20.6568542,23 19,23 L5,23 C3.34314575,23 2,21.6568542 2,20 L2,6 C2,5.78362979 2.07017787,5.57309617 2.2,5.4 C2.2019758,5.39727231 2.20401169,5.39459033 2.20606076,5.39191899 L5.2,1.4 C5.38885438,1.14819416 5.6852427,1 6,1 L18,1 C18.3147573,1 18.6111456,1.14819416 18.8,1.4 L21.7939392,5.39191899 Z M19,5 L17.5,3 L6.5,3 L5,5 L19,5 Z M20,7 L4,7 L4,20 C4,20.5522847 4.44771525,21 5,21 L19,21 C19.5522847,21 20,20.5522847 20,20 L20,7 Z M15,10 C15,9.44771525 15.4477153,9 16,9 C16.5522847,9 17,9.44771525 17,10 C17,12.7614237 14.7614237,15 12,15 C9.23857625,15 7,12.7614237 7,10 C7,9.44771525 7.44771525,9 8,9 C8.55228475,9 9,9.44771525 9,10 C9,11.6568542 10.3431458,13 12,13 C13.6568542,13 15,11.6568542 15,10 Z" id="Combined-Shape" fill="#000000" fill-rule="nonzero"></path>
    </g>
</svg>

<svg width="24" height="24" viewBox="0 0 24 24" xmlns="http://www.w3.org/2000/svg"><path d="M21.794 5.392A1.003 1.003 0 0 1 22 6v14a3 3 0 0 1-3 3H5a3 3 0 0 1-3-3V6a1 1 0 0 1 .206-.608L5.2 1.4A1 1 0 0 1 6 1h12a1 1 0 0 1 .8.4l2.994 3.992zM19 5l-1.5-2h-11L5 5h14zm1 2H4v13a1 1 0 0 0 1 1h14a1 1 0 0 0 1-1V7zm-5 3a1 1 0 0 1 2 0 5 5 0 0 1-10 0 1 1 0 1 1 2 0 3 3 0 0 0 6 0z" fill-rule="nonzero"/></svg>
